www/src/assets/quotation-mark-ornament.svg

<svg width="25" height="20" viewBox="0 0 25 20" fill="none" xmlns="http://www.w3.org/2000/svg">
  <path d="M7.57 19.4C7.10333 19.4 6.47333 19.2367 5.68 18.91C3.95333 17.8833 2.64667 16.74 1.76 15.48C0.92 14.1733 0.5 12.6333 0.5 10.86C0.5 9.55333 0.873333 8.2 1.62 6.8C2.36667 5.4 3.51 4.14 5.05 3.02C6.59 1.85333 8.50333 1.01333 10.79 0.499996V2.04C9.15667 2.46 7.73333 3.16 6.52 4.14C5.35333 5.12 4.77 6.28666 4.77 7.64C4.77 8.48 4.98 9.27333 5.4 10.02C5.86667 10.7667 6.82333 11.5367 8.27 12.33L10.72 13.59L10.79 14.43L9.25 17.86C8.87667 18.8867 8.31667 19.4 7.57 19.4ZM21.5 19.4C21.0333 19.4 20.4033 19.2367 19.61 18.91C17.8833 17.8833 16.5767 16.74 15.69 15.48C14.85 14.1733 14.43 12.6333 14.43 10.86C14.43 9.55333 14.8033 8.2 15.55 6.8C16.2967 5.4 17.44 4.14 18.98 3.02C20.52 1.85333 22.4333 1.01333 24.72 0.499996V2.04C23.0867 2.46 21.6633 3.16 20.45 4.14C19.2833 5.12 18.7 6.28666 18.7 7.64C18.7 8.48 18.91 9.27333 19.33 10.02C19.7967 10.7667 20.7533 11.5367 22.2 12.33L24.65 13.59L24.72 14.43L23.18 17.86C22.8067 18.8867 22.2467 19.4 21.5 19.4Z" />
</svg>

<svg width="25" height="20" viewBox="0 0 25 20" fill="none" xmlns="http://www.w3.org/2000/svg">
  <path d="M7.57 19.4c-.467 0-1.097-.163-1.89-.49-1.727-1.027-3.033-2.17-3.92-3.43C.92 14.173.5 12.633.5 10.86.5 9.553.873 8.2 1.62 6.8c.747-1.4 1.89-2.66 3.43-3.78C6.59 1.853 8.503 1.013 10.79.5v1.54c-1.633.42-3.057 1.12-4.27 2.1-1.167.98-1.75 2.147-1.75 3.5 0 .84.21 1.633.63 2.38.467.747 1.423 1.517 2.87 2.31l2.45 1.26.07.84-1.54 3.43c-.373 1.027-.933 1.54-1.68 1.54zm13.93 0c-.467 0-1.097-.163-1.89-.49-1.727-1.027-3.033-2.17-3.92-3.43-.84-1.307-1.26-2.847-1.26-4.62 0-1.307.373-2.66 1.12-4.06.747-1.4 1.89-2.66 3.43-3.78 1.54-1.167 3.453-2.007 5.74-2.52v1.54c-1.633.42-3.057 1.12-4.27 2.1-1.167.98-1.75 2.147-1.75 3.5 0 .84.21 1.633.63 2.38.467.747 1.423 1.517 2.87 2.31l2.45 1.26.07.84-1.54 3.43c-.373 1.027-.933 1.54-1.68 1.54z"/>
</svg>
